src/assets/svg/icons/fa/nuevos/classic/duotone/bell-school classic duotone.svg

<svg xmlns="http://www.w3.org/2000/svg" viewBox="0 0 512 512"><!--! Font Awesome Pro 6.4.0 by @fontawesome - https://fontawesome.com License - https://fontawesome.com/license (Commercial License) Copyright 2023 Fonticons, Inc. --><defs><style>.fa-secondary{opacity:.4}</style></defs><path class="fa-primary" d="M208 160a48 48 0 1 1 0 96 48 48 0 1 1 0-96zm0 256c55.9 0 106.6-22 144-57.9V464h40c18.6 0 34.7-10.6 42.7-26c-11.4-8.8-18.7-22.5-18.7-38c0-26.5 21.5-48 48-48s48 21.5 48 48c0 19.4-11.5 36.1-28 43.7c-11.9 39.5-48.6 68.3-92 68.3l-40 0H112c-26.5 0-48-21.5-48-48V358.1C101.4 394 152.1 416 208 416z"/><path class="fa-secondary" d="M288 208a80 80 0 1 0 -160 0 80 80 0 1 0 160 0zM0 208a208 208 0 1 1 416 0A208 208 0 1 1 0 208z"/></svg>

<svg xmlns="http://www.w3.org/2000/svg" viewBox="0 0 512 512"><defs><style>.fa-secondary{opacity:.4}</style></defs><path class="fa-primary" d="M160 208C160 181.5 181.5 160 208 160C234.5 160 256 181.5 256 208C256 234.5 234.5 256 208 256C181.5 256 160 234.5 160 208zM208 416C263.9 416 314.6 393.1 352 358.1V464H392C410.6 464 426.7 453.4 434.7 438C423.3 429.2 416 415.5 416 400C416 373.5 437.5 352 464 352C490.5 352 512 373.5 512 400C512 419.4 500.5 436.1 483.1 443.7C472.1 483.2 435.4 512 392 512H112C85.49 512 64 490.5 64 464V358.1C101.4 393.1 152.1 416 208 416z"/><path class="fa-secondary" d="M416 208C416 322.9 322.9 416 208 416C93.12 416 0 322.9 0 208C0 93.12 93.12 0 208 0C322.9 0 416 93.12 416 208zM208 128C163.8 128 128 163.8 128 208C128 252.2 163.8 288 208 288C252.2 288 288 252.2 288 208C288 163.8 252.2 128 208 128z"/></svg>
